!!!OTL: Das Regina coeli deutsch, auf die osterliche Zeit zu singen
!!!ARE: Europa, Mitteleuropa, Deutschland
!!!SCT: A0595B
!!!YEM: Copyright 1995, estate of Helmut Schaffrath.
**kern
*ICvox
*Ivox
*M4/2
*k[f#]
*G:
{4g
=1
2g
2dd
2b
2g
=2
4a
4b
2cc
1b}
=3
{2dd
2ee
4dd
4cc
4b
4a
=4
2g
2r}
{2cc
2a
=5
2b
2g
2a
4g}
{4b
=6
2a
4g
4f#
4e
4f#
4g
4f#
=7
2e
2d}
{2dd
4b
4g
=8
2cc
4b
4g
2a
2g}
==
!!!AGN: Romanze, Ballade, Lied, religioeses Lied
!! Strassb. Gsgb 1569
!!!ONB: ESAC (Essen Associative Code) Database: ALTDEU
!!!AMT: simple quadruple
!!!AIN: vox
!!!EED: Helmut Schaffrath
!!!EEV: 1.0
*-
